X:1
T:C Major           Daniel Belknap, 1806
T:Isaac Watts, 1719 (Psalm 146, Stanzas 6 & 5)       88. 88. (L. M.)
T:Saco
T:Treble-Tenor-Bass transcribed from The Village Compilation , 1806 ; Counter by B. C. Johnston, 2017.
%%score [ 1 2 3 4 ]
L:1/8
Q:1/4=120
M:4/4
K:C
V:1 treble nm="Tr." snm="Tr."
V:2 treble nm="C." snm="C."
V:3 treble-8 nm="T." snm="T."
V:4 bass nm="B." snm="B."
V:1
"^The  Lord  hath  eyes  to  give   the   blind;     The Lord supports the sinking mind;  He sends the laboring conscience peace,    He    helps  the  stranger  in   dis – tress," c4 | %1
 G2 G2 A2 c2 | dc BA B4- | B4 e4 | e2 e2 d2 c2 | f2 e2 e4 | f4 g2 f2 | e2 c2 dc B2 | c8 | z4 c4 | %10
 A3 G A2 c2 | Bc d2 G2 z2 | z8 | z8 | %14
 z4 z2"^And grants the prisoner sweet release. And grants  the  pri – soner  sweet  re–lease." AB | %15
 c2 c2 c2 d2 | G2 Gc G2 ed | c2 c2 cf ed | c4 d4 | e8 |] %20
V:2
"^The  Lord  hath  eyes  to  give   the   blind;     The Lord supports the sinking mind;  He sends the laboring conscience peace,    He    helps  the  stranger  in   dis – tress," c4 | %1
 G2 E2 A2 EG | FA BA G4- | G4 G4 | c2 c2 B2 G2 | A2 cB A4 | F4 G2 F2 | G2 E2 FG B2 | c8 | z4 G4 | %10
 F3 G A2 G2 | BA GF G2 z2 | z8 | z8 | %14
 z4 z2"^And grants the prisoner sweet release. And grants  the  pri – soner  sweet  re–lease." AB | %15
 c2 c2 A2 G2 | G2 DE G2 cB | c2 c2 GF ED | C4 D4 | E8 |] %20
V:3
"^The  Lord  hath  eyes  to  give   the   blind;     The Lord supports the sinking mind;  He sends the laboring conscience peace,                                                                           The" G4 | %1
 c2 c2 c2 eg | fe dc d4- | d4 G4 | A2 c2 B2 e2 | A2 A^G A4 | c4 c2 e2 | g2 e2 fe d2 | c8 | z8 | %10
 z8 | z4 z2 d2 | %12
"^widow  and  the    fa  –   ther  –  less.  And grants the prisoner sweet release. And grants  the  pri – soner  sweet  re–lease." e3 d c2 eg | %13
 f4 (f2 e2) | d6 cd | e2 e2 A2 G2 | d2 de d2 cd | e2 a2 ge cd | e4 d4 | c8 |] %20
V:4
"^The  Lord  hath  eyes  to  give   the   blind;     The Lord supports the sinking mind;  He sends the laboring conscience peace,      He  helps  the  stranger  in  dis – tress,  The" C,4 | %1
 E,2 G,2 C2 E,2 | D,2 D,2 G,4- | G,4 E,4 | E,2 E,2 G,2 G,2 | D,2 E,2 A,,4 | F,4 E,2 D,2 | %7
 C,2 C2 F,2 G,2 | C,8 | z4 C,4 | F,3 E, D,2 C,2 | G,2 G,F, E,2 G,2 | %12
"^widow  and  the    fa  –   ther  –  less.                                                                        And grants  the  pri – soner  sweet  re–lease." C3 B, A,2 C2 | %13
 D4 D,4 | G,6 z2 | z8 | z4 z2 G,2 | C2 F,2 G,2 D2 | C4 G,4 | C,8 |] %20

